docs/.vuepress/public/images/icons/icon-validation-warning.svg

<svg width="24" height="24" viewBox="0 0 24 24" xmlns="http://www.w3.org/2000/svg">
    <path fill="#ebca73" fill-rule="evenodd" clip-rule="evenodd" d="M12 2C6.48 2 2 6.48 2 12s4.48 10 10 10 10-4.48 10-10S17.52 2 12 2zm0 11c-.55 0-1-.45-1-1V8c0-.55.45-1 1-1s1 .45 1 1v4c0 .55-.45 1-1 1zm-1 2v2h2v-2h-2z"/>
</svg>

<svg width="24" height="24" viewBox="0 0 24 24" fill="none" xmlns="http://www.w3.org/2000/svg">
    <rect x="9" y="6" width="6" height="13" fill="white"/>
    <path fill-rule="evenodd" clip-rule="evenodd" d="M12 2C6.48 2 2 6.48 2 12C2 17.52 6.48 22 12 22C17.52 22 22 17.52 22 12C22 6.48 17.52 2 12 2ZM12 13C11.45 13 11 12.55 11 12V8C11 7.45 11.45 7 12 7C12.55 7 13 7.45 13 8V12C13 12.55 12.55 13 12 13ZM11 15V17H13V15H11Z" fill="#0022CD"/>
</svg>
